; generated by PrusaSlicer 2.5.0+win64 on 2022-12-15 at 16:09:16 UTC

; 

; external perimeters extrusion width = 0.90mm
; perimeters extrusion width = 0.90mm
; infill extrusion width = 0.90mm
; solid infill extrusion width = 0.90mm
; top infill extrusion width = 0.80mm
; first layer extrusion width = 0.84mm

M73 P0 R33
M107
;TYPE:Custom
G28 ; home all axes
G1 Z5 F5000 ; lift nozzle

M140 S75; set bed temp
M190 S55; wait for bed temp
M104 S250; set extruder temp
M190 S75; wait for bed temp
M109 S250; wait for extruder temp

; purge line
G1 Y8.0 X0.0 Z0.3 F1500.0 ; go to edge of print area and .3mm high to start .6mm nozzle purge line
G92 E0.0; reset extruder
M83; set extruder to relative mode
G1 X50.0 E12.0 F800.0 ; intro line. Adjust the "E12" down a bit if needed
G1 X120.0 E20.0 F800.0 ; thicker intro line
G1 E-1.000 F1800; retract 1mm
;G1 X146.0 F3200; wipe backwards 4mm
G92 E0.0;reset extruder
M82; set to absolute mode
G21 ; set units to millimeters
G90 ; use absolute coordinates
M82 ; use absolute distances for extrusion
G92 E0
; Filament gcode
M107
;LAYER_CHANGE
;Z:0.2
;HEIGHT:0.2
G1 Z.2 F7800
G1 E-3.2 F2400
G92 E0
G1 X117.786 Y117.786 F7800
G1 E3.4 F2400
;TYPE:Perimeter
;WIDTH:0.839999
G1 F2025
G1 X102.214 Y117.786 E4.43205
G1 X102.214 Y102.214 E5.4641
G1 X117.786 Y102.214 E6.49615
G1 X117.786 Y117.666 E7.52025
G1 X118.583 Y118.583 F7800
G1 F2025
G1 X101.417 Y118.583 E8.65796
G1 X101.417 Y101.417 E9.79566
G1 X118.583 Y101.417 E10.93337
G1 X118.583 Y118.463 E12.06313
G1 X119.38 Y119.38 F7800
;TYPE:External perimeter
G1 F1012.5
G1 X100.62 Y119.38 E13.30649
G1 X100.62 Y100.62 E14.54985
G1 X119.38 Y100.62 E15.79322
G1 X119.38 Y119.26 E17.02863
G1 X118.607 Y119.173 F7800
G1 E13.82863 F2400
G92 E0
G1 X115.814 Y102.533 F7800
G1 E3.4 F2400
;TYPE:Solid infill
;WIDTH:0.85956
G1 F1080
G1 X117.108 Y103.827 E3.52427
G1 X117.108 Y104.982 E3.60269
G1 X115.018 Y102.892 E3.80342
G1 X113.863 Y102.892 E3.88184
M73 P1 R33
G1 X117.108 Y106.137 E4.19347
G1 X117.108 Y107.292 E4.2719
G1 X112.708 Y102.892 E4.69444
G1 X111.553 Y102.892 E4.77286
G1 X117.108 Y108.447 E5.30631
G1 X117.108 Y109.602 E5.38473
G1 X110.398 Y102.892 E6.02908
G1 X109.244 Y102.892 E6.1075
G1 X117.108 Y110.756 E6.86276
G1 X117.108 Y111.911 E6.94118
G1 X108.089 Y102.892 E7.80735
G1 X106.934 Y102.892 E7.88577
G1 X117.108 Y113.066 E8.86284
G1 X117.108 Y114.221 E8.94126
G1 X105.779 Y102.892 E10.02924
G1 X104.624 Y102.892 E10.10766
G1 X117.108 Y115.376 E11.30655
G1 X117.108 Y116.531 E11.38497
G1 X103.469 Y102.892 E12.69476
G1 X102.892 Y102.892 E12.73397
G1 X102.892 Y103.469 E12.77318
G1 X116.531 Y117.108 E14.08296
G1 X115.376 Y117.108 E14.16138
G1 X102.892 Y104.624 E15.36025
G1 X102.892 Y105.779 E15.43867
G1 X114.221 Y117.108 E16.52664
G1 X113.066 Y117.108 E16.60506
G1 X102.892 Y106.934 E17.58212
G1 X102.892 Y108.089 E17.66054
G1 X111.911 Y117.108 E18.5267
G1 X110.756 Y117.108 E18.60512
G1 X102.892 Y109.244 E19.36036
G1 X102.892 Y110.399 E19.43879
G1 X109.601 Y117.108 E20.08313
G1 X108.447 Y117.108 E20.16155
G1 X102.892 Y111.553 E20.69498
G1 X102.892 Y112.708 E20.77341
G1 X107.292 Y117.108 E21.19594
G1 X106.137 Y117.108 E21.27436
G1 X102.892 Y113.863 E21.58598
G1 X102.892 Y115.018 E21.6644
G1 X104.982 Y117.108 E21.86512
G1 X103.827 Y117.108 E21.94354
G1 X102.533 Y115.814 E22.0678
;LAYER_CHANGE
;Z:0.36
;HEIGHT:0.16
G1 Z.36 F7800
M104 S240 ; set temperature
G1 X117.819 Y117.819
;TYPE:Perimeter
;WIDTH:0.899999
G1 F1867
G1 X102.181 Y117.819 E22.96826
G1 X102.181 Y102.181 E23.86872
G1 X117.819 Y102.181 E24.76919
G1 X117.819 Y117.699 E25.66274
G1 X118.684 Y118.684 F7800
G1 F1867
G1 X101.316 Y118.684 E26.6629
G1 X101.316 Y101.316 E27.66306
G1 X118.684 Y101.316 E28.66322
G1 X118.684 Y118.564 E29.65647
G1 X119.55 Y119.55 F7800
;TYPE:External perimeter
G1 F1867
G1 X100.45 Y119.55 E30.75633
G1 X100.45 Y100.45 E31.85618
M73 P2 R33
G1 X119.55 Y100.45 E32.95604
G1 X119.55 Y119.43 E34.04899
G1 X118.777 Y119.343 F7800
G1 X115.68 Y117.472
;TYPE:Solid infill
;WIDTH:0.92007
G1 F1867
G1 X117.083 Y116.07 E34.16588
G1 X117.083 Y114.817 E34.23969
G1 X114.817 Y117.083 E34.42849
G1 X113.564 Y117.083 E34.5023
G1 X117.083 Y113.564 E34.79548
G1 X117.083 Y112.312 E34.86928
G1 X112.312 Y117.083 E35.26684
G1 X111.059 Y117.083 E35.34064
G1 X117.083 Y111.059 E35.84257
G1 X117.083 Y109.806 E35.91638
G1 X109.806 Y117.083 E36.52268
G1 X108.554 Y117.083 E36.59648
G1 X117.083 Y108.554 E37.30716
G1 X117.083 Y107.301 E37.38096
G1 X107.301 Y117.083 E38.19601
G1 X106.049 Y117.083 E38.26982
M73 P2 R32
G1 X117.083 Y106.049 E39.18924
G1 X117.083 Y104.796 E39.26304
G1 X104.796 Y117.083 E40.28684
G1 X103.543 Y117.083 E40.36065
G1 X117.083 Y103.543 E41.48882
G1 X117.083 Y102.917 E41.52571
G1 X116.457 Y102.917 E41.56262
G1 X102.917 Y116.456 E42.69078
G1 X102.917 Y115.204 E42.76458
G1 X115.204 Y102.917 E43.78837
G1 X113.951 Y102.917 E43.86217
G1 X102.917 Y113.951 E44.78159
G1 X102.917 Y112.699 E44.85539
G1 X112.699 Y102.917 E45.67043
G1 X111.446 Y102.917 E45.74423
G1 X102.917 Y111.446 E46.4549
G1 X102.917 Y110.193 E46.5287
G1 X110.193 Y102.917 E47.13499
G1 X108.941 Y102.917 E47.2088
G1 X102.917 Y108.941 E47.71072
G1 X102.917 Y107.688 E47.78452
G1 X107.688 Y102.917 E48.18206
G1 X106.436 Y102.917 E48.25587
G1 X102.917 Y106.436 E48.54904
G1 X102.917 Y105.183 E48.62284
G1 X105.183 Y102.917 E48.81164
G1 X103.93 Y102.917 E48.88544
G1 X102.528 Y104.32 E49.00233
M106 S99.45
;LAYER_CHANGE
;Z:0.52
;HEIGHT:0.16
G1 Z.52 F7800
G1 X117.819 Y117.819
;TYPE:Perimeter
;WIDTH:0.899999
G1 F1885
G1 X102.181 Y117.819 E49.90279
G1 X102.181 Y102.181 E50.80325
G1 X117.819 Y102.181 E51.70372
G1 X117.819 Y117.699 E52.59727
G1 X118.684 Y118.684 F7800
G1 F1885
G1 X101.316 Y118.684 E53.59743
G1 X101.316 Y101.316 E54.59759
G1 X118.684 Y101.316 E55.59775
G1 X118.684 Y118.564 E56.591
G1 X119.55 Y119.55 F7800
;TYPE:External perimeter
G1 F1885
G1 X100.45 Y119.55 E57.69086
G1 X100.45 Y100.45 E58.79071
G1 X119.55 Y100.45 E59.89057
G1 X119.55 Y119.43 E60.98352
G1 X118.777 Y119.343 F7800
G1 X115.68 Y102.528
;TYPE:Solid infill
;WIDTH:0.92007
G1 F1885
G1 X117.083 Y103.93 E61.10041
G1 X117.083 Y105.183 E61.17422
G1 X114.817 Y102.917 E61.36302
G1 X113.564 Y102.917 E61.43683
G1 X117.083 Y106.436 E61.73001
G1 X117.083 Y107.688 E61.80381
G1 X112.312 Y102.917 E62.20137
G1 X111.059 Y102.917 E62.27517
G1 X117.083 Y108.941 E62.7771
G1 X117.083 Y110.194 E62.85091
G1 X109.806 Y102.917 E63.45721
G1 X108.554 Y102.917 E63.53101
G1 X117.083 Y111.446 E64.24169
G1 X117.083 Y112.699 E64.31549
G1 X107.301 Y102.917 E65.13054
G1 X106.049 Y102.917 E65.20435
M73 P3 R32
G1 X117.083 Y113.951 E66.12377
G1 X117.083 Y115.204 E66.19757
G1 X104.796 Y102.917 E67.22137
G1 X103.543 Y102.917 E67.29518
G1 X117.083 Y116.457 E68.42335
G1 X117.083 Y117.083 E68.46024
G1 X116.456 Y117.083 E68.49715
G1 X102.917 Y103.544 E69.62531
G1 X102.917 Y104.796 E69.69911
G1 X115.204 Y117.083 E70.7229
G1 X113.951 Y117.083 E70.7967
G1 X102.917 Y106.049 E71.71612
G1 X102.917 Y107.301 E71.78992
G1 X112.699 Y117.083 E72.60496
G1 X111.446 Y117.083 E72.67876
G1 X102.917 Y108.554 E73.38943
G1 X102.917 Y109.807 E73.46323
G1 X110.193 Y117.083 E74.06952
G1 X108.941 Y117.083 E74.14333
G1 X102.917 Y111.059 E74.64525
G1 X102.917 Y112.312 E74.71905
G1 X107.688 Y117.083 E75.11659
G1 X106.436 Y117.083 E75.1904
G1 X102.917 Y113.564 E75.48357
G1 X102.917 Y114.817 E75.55737
G1 X105.183 Y117.083 E75.74617
G1 X103.93 Y117.083 E75.81997
G1 X102.528 Y115.68 E75.93686
;LAYER_CHANGE
;Z:0.68
;HEIGHT:0.16
G1 Z.68 F7800
G1 X117.819 Y117.819
;TYPE:Perimeter
;WIDTH:0.899999
G1 F1867
G1 X102.181 Y117.819 E76.83732
G1 X102.181 Y102.181 E77.73778
G1 X117.819 Y102.181 E78.63825
G1 X117.819 Y117.699 E79.5318
G1 X118.684 Y118.684 F7800
G1 F1867
G1 X101.316 Y118.684 E80.53196
G1 X101.316 Y101.316 E81.53212
G1 X118.684 Y101.316 E82.53228
G1 X118.684 Y118.564 E83.52553
G1 X119.55 Y119.55 F7800
;TYPE:External perimeter
G1 F1867
G1 X100.45 Y119.55 E84.62539
G1 X100.45 Y100.45 E85.72524
G1 X119.55 Y100.45 E86.8251
G1 X119.55 Y119.43 E87.91805
G1 X118.777 Y119.343 F7800
G1 X115.68 Y117.472
;TYPE:Internal infill
;WIDTH:0.9
G1 F1867
G1 X117.083 Y116.07 E88.03229
G1 X117.083 Y114.817 E88.10442
G1 X114.817 Y117.083 E88.28895
G1 X113.564 Y117.083 E88.36109
G1 X117.083 Y113.564 E88.64762
G1 X117.083 Y112.312 E88.71975
G1 X112.312 Y117.083 E89.1083
G1 X111.059 Y117.083 E89.18043
G1 X117.083 Y111.059 E89.67099
G1 X117.083 Y109.806 E89.74312
G1 X109.806 Y117.083 E90.33568
G1 X108.554 Y117.083 E90.40781
G1 X117.083 Y108.554 E91.10238
G1 X117.083 Y107.301 E91.17451
G1 X107.301 Y117.083 E91.97109
G1 X106.049 Y117.083 E92.04322
G1 X117.083 Y106.049 E92.94181
G1 X117.083 Y104.796 E93.01394
G1 X104.796 Y117.083 E94.01454
G1 X103.543 Y117.083 E94.08667
G1 X117.083 Y103.543 E95.18928
G1 X117.083 Y102.917 E95.22534
G1 X116.457 Y102.917 E95.26141
G1 X102.917 Y116.456 E96.364
G1 X102.917 Y115.204 E96.43613
G1 X115.204 Y102.917 E97.43672
G1 X113.951 Y102.917 E97.50885
G1 X102.917 Y113.951 E98.40743
G1 X102.917 Y112.699 E98.47956
G1 X112.699 Y102.917 E99.27613
G1 X111.446 Y102.917 E99.34826
G1 X102.917 Y111.446 E100.04283
G1 X102.917 Y110.193 E100.11496
M73 P4 R32
G1 X110.193 Y102.917 E100.70751
G1 X108.941 Y102.917 E100.77964
G1 X102.917 Y108.941 E101.27019
G1 X102.917 Y107.688 E101.34232
G1 X107.688 Y102.917 E101.73086
G1 X106.436 Y102.917 E101.80299
G1 X102.917 Y106.436 E102.08952
G1 X102.917 Y105.183 E102.16165
G1 X105.183 Y102.917 E102.34617
G1 X103.93 Y102.917 E102.4183
G1 X102.528 Y104.32 E102.53254
;LAYER_CHANGE
;Z:0.84
;HEIGHT:0.16
G1 Z.84 F7800
G1 X117.819 Y117.819
;TYPE:Perimeter
;WIDTH:0.899999
G1 F1883
G1 X102.181 Y117.819 E103.433
G1 X102.181 Y102.181 E104.33346
G1 X117.819 Y102.181 E105.23393
G1 X117.819 Y117.699 E106.12748
G1 X118.684 Y118.684 F7800
G1 F1883
G1 X101.316 Y118.684 E107.12764
G1 X101.316 Y101.316 E108.1278
G1 X118.684 Y101.316 E109.12796
G1 X118.684 Y118.564 E110.12121
G1 X119.55 Y119.55 F7800
;TYPE:External perimeter
G1 F1883
G1 X100.45 Y119.55 E111.22107
G1 X100.45 Y100.45 E112.32093
G1 X119.55 Y100.45 E113.42078
G1 X119.55 Y119.43 E114.51373
G1 X118.777 Y119.343 F7800
G1 X117.472 Y104.32
;TYPE:Internal infill
;WIDTH:0.9
G1 F1883
G1 X116.07 Y102.917 E114.62797
G1 X114.817 Y102.917 E114.70011
G1 X117.083 Y105.183 E114.88464
G1 X117.083 Y106.436 E114.95677
G1 X113.564 Y102.917 E115.2433
G1 X112.312 Y102.917 E115.31544
G1 X117.083 Y107.688 E115.70398
G1 X117.083 Y108.941 E115.77611
G1 X111.059 Y102.917 E116.26667
G1 X109.806 Y102.917 E116.3388
G1 X117.083 Y110.194 E116.93136
G1 X117.083 Y111.446 E117.00349
G1 X108.554 Y102.917 E117.69806
G1 X107.301 Y102.917 E117.7702
G1 X117.083 Y112.699 E118.56678
G1 X117.083 Y113.951 E118.63891
G1 X106.049 Y102.917 E119.53749
G1 X104.796 Y102.917 E119.60962
G1 X117.083 Y115.204 E120.61022
G1 X117.083 Y116.457 E120.68235
G1 X103.543 Y102.917 E121.78496
G1 X102.917 Y102.917 E121.82102
G1 X102.917 Y103.543 E121.85709
G1 X116.457 Y117.083 E122.95968
G1 X115.204 Y117.083 E123.03181
G1 X102.917 Y104.796 E124.0324
G1 X102.917 Y106.049 E124.10453
G1 X113.951 Y117.083 E125.00311
G1 X112.699 Y117.083 E125.07524
G1 X102.917 Y107.301 E125.87181
G1 X102.917 Y108.554 E125.94395
G1 X111.446 Y117.083 E126.63851
G1 X110.193 Y117.083 E126.71064
G1 X102.917 Y109.807 E127.30319
G1 X102.917 Y111.059 E127.37532
G1 X108.941 Y117.083 E127.86587
G1 X107.688 Y117.083 E127.938
G1 X102.917 Y112.312 E128.32654
G1 X102.917 Y113.564 E128.39867
G1 X106.436 Y117.083 E128.6852
G1 X105.183 Y117.083 E128.75733
G1 X102.917 Y114.817 E128.94185
G1 X102.917 Y116.07 E129.01398
G1 X104.32 Y117.472 E129.12822
;LAYER_CHANGE
;Z:1
;HEIGHT:0.16
G1 Z1 F7800
G1 X117.819 Y117.819
;TYPE:Perimeter
;WIDTH:0.899999
G1 F1865
G1 X102.181 Y117.819 E130.02868
G1 X102.181 Y102.181 E130.92915
G1 X117.819 Y102.181 E131.82961
G1 X117.819 Y117.699 E132.72316
G1 X118.684 Y118.684 F7800
G1 F1865
G1 X101.316 Y118.684 E133.72332
G1 X101.316 Y101.316 E134.72348
M73 P5 R32
G1 X118.684 Y101.316 E135.72364
G1 X118.684 Y118.564 E136.71689
G1 X119.55 Y119.55 F7800
;TYPE:External perimeter
G1 F1865
G1 X100.45 Y119.55 E137.81675
G1 X100.45 Y100.45 E138.91661
G1 X119.55 Y100.45 E140.01646
G1 X119.55 Y119.43 E141.10941
M73 P5 R31
G1 X118.777 Y119.343 F7800
G1 X115.68 Y117.472
;TYPE:Internal infill
;WIDTH:0.9
G1 F1865
G1 X117.083 Y116.07 E141.22366
G1 X117.083 Y114.817 E141.29579
G1 X114.817 Y117.083 E141.48032
G1 X113.564 Y117.083 E141.55245
G1 X117.083 Y113.564 E141.83899
G1 X117.083 Y112.312 E141.91112
G1 X112.312 Y117.083 E142.29966
G1 X111.059 Y117.083 E142.37179
G1 X117.083 Y111.059 E142.86235
G1 X117.083 Y109.806 E142.93448
G1 X109.806 Y117.083 E143.52704
G1 X108.554 Y117.083 E143.59917
G1 X117.083 Y108.554 E144.29375
G1 X117.083 Y107.301 E144.36588
G1 X107.301 Y117.083 E145.16246
G1 X106.049 Y117.083 E145.23459
G1 X117.083 Y106.049 E146.13318
G1 X117.083 Y104.796 E146.20531
G1 X104.796 Y117.083 E147.2059
G1 X103.543 Y117.083 E147.27803
G1 X117.083 Y103.543 E148.38064
G1 X117.083 Y102.917 E148.4167
G1 X116.457 Y102.917 E148.45277
G1 X102.917 Y116.456 E149.55537
G1 X102.917 Y115.204 E149.6275
G1 X115.204 Y102.917 E150.62808
G1 X113.951 Y102.917 E150.70021
G1 X102.917 Y113.951 E151.59879
G1 X102.917 Y112.699 E151.67092
G1 X112.699 Y102.917 E152.4675
G1 X111.446 Y102.917 E152.53963
G1 X102.917 Y111.446 E153.23419
G1 X102.917 Y110.193 E153.30632
G1 X110.193 Y102.917 E153.89887
G1 X108.941 Y102.917 E153.97101
G1 X102.917 Y108.941 E154.46155
G1 X102.917 Y107.688 E154.53368
G1 X107.688 Y102.917 E154.92222
G1 X106.436 Y102.917 E154.99435
G1 X102.917 Y106.436 E155.28088
G1 X102.917 Y105.183 E155.35301
G1 X105.183 Y102.917 E155.53753
G1 X103.93 Y102.917 E155.60966
G1 X102.528 Y104.32 E155.7239
;LAYER_CHANGE
;Z:1.16
;HEIGHT:0.16
G1 Z1.16 F7800
G1 X117.819 Y117.819
;TYPE:Perimeter
;WIDTH:0.899999
G1 F1883
G1 X102.181 Y117.819 E156.62436
G1 X102.181 Y102.181 E157.52483
G1 X117.819 Y102.181 E158.42529
G1 X117.819 Y117.699 E159.31884
G1 X118.684 Y118.684 F7800
G1 F1883
G1 X101.316 Y118.684 E160.319
G1 X101.316 Y101.316 E161.31916
G1 X118.684 Y101.316 E162.31932
G1 X118.684 Y118.564 E163.31257
G1 X119.55 Y119.55 F7800
;TYPE:External perimeter
G1 F1883
G1 X100.45 Y119.55 E164.41243
G1 X100.45 Y100.45 E165.51229
G1 X119.55 Y100.45 E166.61214
G1 X119.55 Y119.43 E167.70509
G1 X118.777 Y119.343 F7800
G1 X117.472 Y104.32
;TYPE:Internal infill
;WIDTH:0.9
G1 F1883
M73 P6 R31
G1 X116.07 Y102.917 E167.81934
G1 X114.817 Y102.917 E167.89147
G1 X117.083 Y105.183 E168.076
G1 X117.083 Y106.436 E168.14813
G1 X113.564 Y102.917 E168.43467
G1 X112.312 Y102.917 E168.5068
G1 X117.083 Y107.688 E168.89534
G1 X117.083 Y108.941 E168.96748
G1 X111.059 Y102.917 E169.45803
G1 X109.806 Y102.917 E169.53016
G1 X117.083 Y110.194 E170.12272
G1 X117.083 Y111.446 E170.19485
G1 X108.554 Y102.917 E170.88943
G1 X107.301 Y102.917 E170.96156
G1 X117.083 Y112.699 E171.75814
G1 X117.083 Y113.951 E171.83027
G1 X106.049 Y102.917 E172.72886
G1 X104.796 Y102.917 E172.80099
G1 X117.083 Y115.204 E173.80158
G1 X117.083 Y116.457 E173.87371
G1 X103.543 Y102.917 E174.97632
G1 X102.917 Y102.917 E175.01238
G1 X102.917 Y103.543 E175.04845
G1 X116.457 Y117.083 E176.15105
G1 X115.204 Y117.083 E176.22318
G1 X102.917 Y104.796 E177.22376
G1 X102.917 Y106.049 E177.2959
G1 X113.951 Y117.083 E178.19447
G1 X112.699 Y117.083 E178.26661
G1 X102.917 Y107.301 E179.06318
G1 X102.917 Y108.554 E179.13531
G1 X111.446 Y117.083 E179.82987
G1 X110.193 Y117.083 E179.902
G1 X102.917 Y109.807 E180.49456
G1 X102.917 Y111.059 E180.56669
G1 X108.941 Y117.083 E181.05723
G1 X107.688 Y117.083 E181.12936
G1 X102.917 Y112.312 E181.5179
G1 X102.917 Y113.564 E181.59003
G1 X106.436 Y117.083 E181.87656
G1 X105.183 Y117.083 E181.94869
G1 X102.917 Y114.817 E182.13321
G1 X102.917 Y116.07 E182.20534
G1 X104.32 Y117.472 E182.31958
;LAYER_CHANGE
;Z:1.32
;HEIGHT:0.16
G1 Z1.32 F7800
G1 X117.819 Y117.819
;TYPE:Perimeter
;WIDTH:0.899999
G1 F1865
G1 X102.181 Y117.819 E183.22004
G1 X102.181 Y102.181 E184.12051
G1 X117.819 Y102.181 E185.02097
G1 X117.819 Y117.699 E185.91452
G1 X118.684 Y118.684 F7800
G1 F1865
G1 X101.316 Y118.684 E186.91468
